static/logos/edge-glyph-color.svg

<svg width="32" height="32" viewBox="0 0 32 32" fill="none" xmlns="http://www.w3.org/2000/svg">
<path d="M19.5918 15.8727C19.5918 13.2 16.8141 8.58636 10.5564 8.58636C4.29874 8.58636 2 13.8045 2 16.0318C2 8.07727 8.48118 2 16.1756 2C23.87 2 30 7.75909 30 13.6136C30 18.8318 26.073 20.6455 22.8803 20.6455C20.7731 20.6455 18.3786 19.9455 18.3786 18.8318C18.3786 17.9727 19.5918 17.9727 19.5918 15.8727Z" fill="url(#paint0_linear_1261_26)"/>
<path d="M10.5564 8.58636C16.8141 8.58636 19.5918 13.2 19.5918 15.8727C19.5918 15.8935 19.5917 15.9141 19.5914 15.9344C19.5599 14.1545 18.3581 12.4682 15.984 12.4682C12.9829 12.4682 8.92817 16.5409 9.47092 21.6C9.90538 25.6496 13.3341 31.0818 20.7731 29.1727C20.7731 29.1727 19.3683 30 15.4413 30C8.48119 30 2 23.6364 2 16.35C2 16.157 2.00294 15.9676 2.00888 15.782C2.16935 13.4383 4.52236 8.58636 10.5564 8.58636Z" fill="url(#paint1_linear_1261_26)"/>
<path d="M10.5564 8.58636C16.8141 8.58636 19.5918 13.2 19.5918 15.8727C19.5918 15.8935 19.5917 15.9141 19.5914 15.9344C19.5599 14.1545 18.3581 12.4682 15.984 12.4682C12.9829 12.4682 8.92817 16.5409 9.47092 21.6C9.90538 25.6496 13.3341 31.0818 20.7731 29.1727C20.7731 29.1727 19.3683 30 15.4413 30C8.48119 30 2 23.6364 2 16.35C2 16.157 2.00294 15.9676 2.00888 15.782C2.16935 13.4383 4.52236 8.58636 10.5564 8.58636Z" fill="url(#paint2_radial_1261_26)"/>
<path d="M19.9065 29.4996C23.8921 28.4124 26.7394 25.0205 27.2543 24.3363C27.829 23.5727 27.9886 23.0954 27.829 22.9363C27.6694 22.7772 27.4459 22.809 26.8712 23.0954C26.2965 23.3818 22.9122 24.7818 19.0491 23.6045C15.1859 22.4272 12.5359 19.3727 12.5359 16C12.5359 13.3909 14.7708 12.4681 15.9841 12.4681C12.9829 12.4681 8.92819 16.5409 9.47095 21.6C9.90541 25.6496 13.3341 31.0818 20.7731 29.1727C20.7731 29.1727 20.5138 29.3254 19.9065 29.4996Z" fill="#0E458A"/>
<path d="M19.9065 29.4996C23.8921 28.4124 26.7394 25.0205 27.2543 24.3363C27.829 23.5727 27.9886 23.0954 27.829 22.9363C27.6694 22.7772 27.4459 22.809 26.8712 23.0954C26.2965 23.3818 22.9122 24.7818 19.0491 23.6045C15.1859 22.4272 12.5359 19.3727 12.5359 16C12.5359 13.3909 14.7708 12.4681 15.9841 12.4681C12.9829 12.4681 8.92819 16.5409 9.47095 21.6C9.90541 25.6496 13.3341 31.0818 20.7731 29.1727C20.7731 29.1727 20.5138 29.3254 19.9065 29.4996Z" fill="url(#paint3_radial_1261_26)"/>
<defs>
<linearGradient id="paint0_linear_1261_26" x1="28.3717" y1="18.5455" x2="0.988192" y2="12.0765" gradientUnits="userSpaceOnUse">
<stop stop-color="#3BCC50"/>
<stop offset="0.489583" stop-color="#2ABAD6"/>
<stop offset="1" stop-color="#7DCFE7"/>
</linearGradient>
<linearGradient id="paint1_linear_1261_26" x1="11.3865" y1="8.58636" x2="11.3865" y2="30" gradientUnits="userSpaceOnUse">
<stop stop-color="#035989"/>
<stop offset="0.265625" stop-color="#1175B6"/>
<stop offset="1" stop-color="#0470CF"/>
</linearGradient>
<radialGradient id="paint2_radial_1261_26" cx="0" cy="0" r="1" gradientUnits="userSpaceOnUse" gradientTransform="translate(10.9396 18.9909) rotate(59.2143) scale(9.48152 9.49698)">
<stop stop-color="#1284D8"/>
<stop offset="0.813899" stop-color="#1170B2" stop-opacity="0.767762"/>
<stop offset="1" stop-color="#0E649B" stop-opacity="0.65"/>
</radialGradient>
<radialGradient id="paint3_radial_1261_26" cx="0" cy="0" r="1" gradientUnits="userSpaceOnUse" gradientTransform="translate(18.6659 21.6) rotate(77.9982) scale(7.6769 8.28824)">
<stop stop-color="#104890"/>
<stop offset="0.69943" stop-color="#12529E" stop-opacity="0.70624"/>
<stop offset="1" stop-color="#0E4584" stop-opacity="0.58"/>
</radialGradient>
</defs>
</svg>

<svg xmlns="http://www.w3.org/2000/svg" width="64" height="64" fill="none" viewBox="0 0 32 32"><path fill="url(#a)" d="M19.592 15.873c0-2.673-2.778-7.287-9.036-7.287S2 13.805 2 16.032C2 8.077 8.481 2 16.176 2 23.87 2 30 7.76 30 13.614c0 5.218-3.927 7.031-7.12 7.031-2.107 0-4.501-.7-4.501-1.813 0-.86 1.213-.86 1.213-2.96"/><path fill="url(#b)" d="M10.556 8.586c6.258 0 9.036 4.614 9.036 7.287v.061c-.032-1.78-1.234-3.466-3.608-3.466-3.001 0-7.056 4.073-6.513 9.132.434 4.05 3.863 9.482 11.302 7.573 0 0-1.405.827-5.332.827C8.481 30 2 23.636 2 16.35q0-.29.009-.568c.16-2.344 2.513-7.196 8.547-7.196"/><path fill="url(#c)" d="M10.556 8.586c6.258 0 9.036 4.614 9.036 7.287v.061c-.032-1.78-1.234-3.466-3.608-3.466-3.001 0-7.056 4.073-6.513 9.132.434 4.05 3.863 9.482 11.302 7.573 0 0-1.405.827-5.332.827C8.481 30 2 23.636 2 16.35q0-.29.009-.568c.16-2.344 2.513-7.196 8.547-7.196"/><path fill="#0E458A" d="M19.907 29.5c3.985-1.088 6.832-4.48 7.347-5.164.575-.763.735-1.24.575-1.4s-.383-.127-.958.16c-.574.286-3.959 1.686-7.822.509S12.536 19.373 12.536 16c0-2.61 2.235-3.532 3.448-3.532-3.001 0-7.056 4.073-6.513 9.132.434 4.05 3.863 9.482 11.302 7.573 0 0-.26.152-.866.327"/><path fill="url(#d)" d="M19.907 29.5c3.985-1.088 6.832-4.48 7.347-5.164.575-.763.735-1.24.575-1.4s-.383-.127-.958.16c-.574.286-3.959 1.686-7.822.509S12.536 19.373 12.536 16c0-2.61 2.235-3.532 3.448-3.532-3.001 0-7.056 4.073-6.513 9.132.434 4.05 3.863 9.482 11.302 7.573 0 0-.26.152-.866.327"/><defs><radialGradient id="c" cx="0" cy="0" r="1" gradientTransform="matrix(4.85291 8.14546 -8.15874 4.86082 10.94 18.99)" gradientUnits="userSpaceOnUse"><stop stop-color="#1284D8"/><stop offset=".814" stop-color="#1170B2" stop-opacity=".768"/><stop offset="1" stop-color="#0E649B" stop-opacity=".65"/></radialGradient><radialGradient id="d" cx="0" cy="0" r="1" gradientTransform="rotate(77.998 -4.004 22.326)scale(7.6769 8.28824)" gradientUnits="userSpaceOnUse"><stop stop-color="#104890"/><stop offset=".699" stop-color="#12529E" stop-opacity=".706"/><stop offset="1" stop-color="#0E4584" stop-opacity=".58"/></radialGradient><linearGradient id="a" x1="28.372" x2=".988" y1="18.546" y2="12.076" gradientUnits="userSpaceOnUse"><stop stop-color="#3BCC50"/><stop offset=".49" stop-color="#2ABAD6"/><stop offset="1" stop-color="#7DCFE7"/></linearGradient><linearGradient id="b" x1="11.386" x2="11.386" y1="8.586" y2="30" gradientUnits="userSpaceOnUse"><stop stop-color="#035989"/><stop offset=".266" stop-color="#1175B6"/><stop offset="1" stop-color="#0470CF"/></linearGradient></defs></svg>
